svg/apparent_power.svg

<svg width="24" height="24" viewBox="0 0 24 24"  xmlns="http://www.w3.org/2000/svg">
<path d="M21.4172 7.24264L17.1746 3H21.4172V7.24264Z" />
<path fill-rule="evenodd" clip-rule="evenodd" d="M8.94464 5.49814C8.94464 6.35906 8.6747 7.01752 8.1348 7.47352C7.59854 7.92951 6.83429 8.15751 5.84205 8.15751H5.11428V11.0029H3.41797V3.00293H5.97337C6.94373 3.00293 7.68062 3.21269 8.18404 3.6322C8.69111 4.04807 8.94464 4.67005 8.94464 5.49814ZM5.11428 6.76764H5.67241C6.19407 6.76764 6.58441 6.66549 6.84341 6.46121C7.10242 6.25327 7.23192 5.95231 7.23192 5.55833C7.23192 5.1607 7.12248 4.86704 6.9036 4.67735C6.68837 4.48765 6.34911 4.39281 5.88582 4.39281H5.11428V6.76764Z" />
<path d="M3 20.0029H5.82843L20.0029 5.82846L18.5887 4.41425L3 20.0029Z" />
<path d="M21.418 19.0029H18.418V20.0029H21.418V19.0029Z" />
<path d="M13.418 19.0029H16.418V20.0029H13.418V19.0029Z" />
<path d="M21.418 12.0029V9.00293H20.418V12.0029H21.418Z" />
<path d="M21.418 14.0029V17.0029H20.418V14.0029H21.418Z" />
<path d="M11.418 20.0029H8.42017L9.42017 19.0029H11.418V20.0029Z" />
</svg>

<svg width="24" height="24" viewBox="0 0 24 24" xmlns="http://www.w3.org/2000/svg"><path d="M21.417 7.243L17.175 3h4.242v4.243z"/><path fill-rule="evenodd" clip-rule="evenodd" d="M8.945 5.498c0 .861-.27 1.52-.81 1.976-.536.456-1.3.684-2.293.684h-.728v2.845H3.418v-8h2.555c.97 0 1.708.21 2.211.63.507.415.76 1.037.76 1.865zm-3.83 1.27h.557c.522 0 .912-.103 1.171-.307.26-.208.389-.509.389-.903 0-.397-.11-.691-.328-.88-.216-.19-.555-.285-1.018-.285h-.772v2.375z"/><path d="M3 20.003h2.828L20.003 5.828l-1.414-1.414L3 20.003zM21.418 19.003h-3v1h3v-1zM13.418 19.003h3v1h-3v-1zM21.418 12.003v-3h-1v3h1zM21.418 14.003v3h-1v-3h1zM11.418 20.003H8.42l1-1h1.998v1z"/></svg>
